src/assets/icons/apps.svg

<svg xmlns="http://www.w3.org/2000/svg" xmlns:xlink="http://www.w3.org/1999/xlink" viewBox="0 0 96 96" width="96" height="96" style="width: 100%; height: 100%; transform: translate3d(0px, 0px, 0px); content-visibility: visible;" preserveAspectRatio="xMidYMid meet"><defs><clipPath id="__lottie_element_200"><rect width="96" height="96" x="0" y="0"></rect></clipPath><clipPath id="__lottie_element_202"><path d="M0,0 L96,0 L96,96 L0,96z"></path></clipPath></defs><g clip-path="url(#__lottie_element_200)"><g clip-path="url(#__lottie_element_202)" style="display: block;" transform="matrix(2.700000047683716,0,0,2.700000047683716,-79.60000610351562,-81.35110473632812)" opacity="1"><g style="display: block;" transform="matrix(1,0,0,1,32.02199935913086,32.64699935913086)" opacity="1"><g opacity="1" transform="matrix(1,0,0,1,7.179999828338623,7.181000232696533)"><path fill="oklab(0.700621 0.0017004 -0.0100388)" fill-opacity="1" d=" M-6.554999828338623,1.6410000324249268 C-6.929999828338623,3.0420000553131104 -6.099999904632568,4.480999946594238 -4.698999881744385,4.85699987411499 C-4.698999881744385,4.85699987411499 1.6410000324249268,6.554999828338623 1.6410000324249268,6.554999828338623 C3.0409998893737793,6.931000232696533 4.48199987411499,6.098999977111816 4.85699987411499,4.698999881744385 C4.85699987411499,4.698999881744385 6.554999828338623,-1.6410000324249268 6.554999828338623,-1.6410000324249268 C6.929999828338623,-3.0420000553131104 6.098999977111816,-4.480999946594238 4.698999881744385,-4.85699987411499 C4.698999881744385,-4.85699987411499 -1.6410000324249268,-6.556000232696533 -1.6410000324249268,-6.556000232696533 C-3.0409998893737793,-6.931000232696533 -4.48199987411499,-6.099999904632568 -4.85699987411499,-4.698999881744385 C-4.85699987411499,-4.698999881744385 -6.554999828338623,1.6410000324249268 -6.554999828338623,1.6410000324249268z"></path></g></g><g style="display: block;" transform="matrix(1,0,0,1,47.44300079345703,32.419002532958984)" opacity="1"><g opacity="1" transform="matrix(1,0,0,1,7.802000045776367,7.021999835968018)"><path fill="oklab(0.700621 0.0017004 -0.0100388)" fill-opacity="1" d=" M-6.478000164031982,2.4040000438690186 C-7.552000045776367,4.372000217437744 -6.126999855041504,6.771999835968018 -3.884999990463257,6.771999835968018 C-3.884999990463257,6.771999835968018 3.885999917984009,6.771999835968018 3.885999917984009,6.771999835968018 C6.127999782562256,6.771999835968018 7.552000045776367,4.372000217437744 6.479000091552734,2.4040000438690186 C6.479000091552734,2.4040000438690186 2.5929999351501465,-4.718999862670898 2.5929999351501465,-4.718999862670898 C1.4739999771118164,-6.771999835968018 -1.4730000495910645,-6.771999835968018 -2.5929999351501465,-4.718999862670898 C-2.5929999351501465,-4.718999862670898 -6.478000164031982,2.4040000438690186 -6.478000164031982,2.4040000438690186z"></path></g></g><g style="display: block;" transform="matrix(1,0,0,1,32.119998931884766,49.04499816894531)" opacity="1"><g opacity="1" transform="matrix(1,0,0,1,7.081999778747559,7.046999931335449)"><path fill="oklab(0.700621 0.0017004 -0.0100388)" fill-opacity="1" d=" M-0.9409999847412109,-6.26800012588501 C-0.42100000381469727,-6.796999931335449 0.41999998688697815,-6.796999931335449 0.9409999847412109,-6.26800012588501 C0.9409999847412109,-6.26800012588501 2.056999921798706,-5.132999897003174 2.056999921798706,-5.132999897003174 C2.2699999809265137,-4.916999816894531 2.5480000972747803,-4.78000020980835 2.8459999561309814,-4.744999885559082 C2.8459999561309814,-4.744999885559082 4.4120001792907715,-4.561999797821045 4.4120001792907715,-4.561999797821045 C5.140999794006348,-4.4770002365112305 5.665999889373779,-3.805999994277954 5.585000038146973,-3.061000108718872 C5.585000038146973,-3.061000108718872 5.410999774932861,-1.4630000591278076 5.410999774932861,-1.4630000591278076 C5.377999782562256,-1.1579999923706055 5.447000026702881,-0.8510000109672546 5.605999946594238,-0.5910000205039978 C5.605999946594238,-0.5910000205039978 6.441999912261963,0.7720000147819519 6.441999912261963,0.7720000147819519 C6.831999778747559,1.406999945640564 6.644999980926514,2.24399995803833 6.0229997634887695,2.6440000534057617 C6.0229997634887695,2.6440000534057617 4.690999984741211,3.502000093460083 4.690999984741211,3.502000093460083 C4.436999797821045,3.6649999618530273 4.24399995803833,3.9119999408721924 4.144000053405762,4.201000213623047 C4.144000053405762,4.201000213623047 3.621000051498413,5.7179999351501465 3.621000051498413,5.7179999351501465 C3.378000020980835,6.423999786376953 2.619999885559082,6.796999931335449 1.9259999990463257,6.551000118255615 C1.9259999990463257,6.551000118255615 0.43799999356269836,6.021999835968018 0.43799999356269836,6.021999835968018 C0.15399999916553497,5.921999931335449 -0.1550000011920929,5.921999931335449 -0.43799999356269836,6.021999835968018 C-0.43799999356269836,6.021999835968018 -1.9270000457763672,6.551000118255615 -1.9270000457763672,6.551000118255615 C-2.619999885559082,6.796999931335449 -3.378000020980835,6.423999786376953 -3.621999979019165,5.7179999351501465 C-3.621999979019165,5.7179999351501465 -4.144999980926514,4.201000213623047 -4.144999980926514,4.201000213623047 C-4.24399995803833,3.9119999408721924 -4.436999797821045,3.6649999618530273 -4.690999984741211,3.502000093460083 C-4.690999984741211,3.502000093460083 -6.02400016784668,2.6440000534057617 -6.02400016784668,2.6440000534057617 C-6.644999980926514,2.24399995803833 -6.831999778747559,1.406999945640564 -6.442999839782715,0.7720000147819519 C-6.442999839782715,0.7720000147819519 -5.605999946594238,-0.5910000205039978 -5.605999946594238,-0.5910000205039978 C-5.447000026702881,-0.8510000109672546 -5.377999782562256,-1.1579999923706055 -5.4120001792907715,-1.4630000591278076 C-5.4120001792907715,-1.4630000591278076 -5.585000038146973,-3.061000108718872 -5.585000038146973,-3.061000108718872 C-5.665999889373779,-3.805999994277954 -5.142000198364258,-4.4770002365112305 -4.4120001792907715,-4.561999797821045 C-4.4120001792907715,-4.561999797821045 -2.8469998836517334,-4.744999885559082 -2.8469998836517334,-4.744999885559082 C-2.5480000972747803,-4.78000020980835 -2.2699999809265137,-4.916999816894531 -2.056999921798706,-5.132999897003174 C-2.056999921798706,-5.132999897003174 -0.9409999847412109,-6.26800012588501 -0.9409999847412109,-6.26800012588501z"></path></g></g><g style="display: block;" transform="matrix(-1,0,0,-1,62.694000244140625,63.320003509521484)" opacity="1"><g opacity="1" transform="matrix(1,0,0,1,7.247000217437744,7.247000217437744)"><path fill="oklab(0.700621 0.0017004 -0.0100388)" fill-opacity="1" d=" M1.5130000114440918,-5.5920000076293945 C0.9929999709129333,-6.997000217437744 -0.9940000176429749,-6.997000217437744 -1.5140000581741333,-5.5920000076293945 C-1.5140000581741333,-5.5920000076293945 -2.190999984741211,-3.760999917984009 -2.190999984741211,-3.760999917984009 C-2.4600000381469727,-3.0339999198913574 -3.0339999198913574,-2.4600000381469727 -3.76200008392334,-2.190999984741211 C-3.76200008392334,-2.190999984741211 -5.5920000076293945,-1.5130000114440918 -5.5920000076293945,-1.5130000114440918 C-6.997000217437744,-0.9940000176429749 -6.997000217437744,0.9929999709129333 -5.5920000076293945,1.5130000114440918 C-5.5920000076293945,1.5130000114440918 -3.76200008392334,2.190999984741211 -3.76200008392334,2.190999984741211 C-3.0339999198913574,2.4600000381469727 -2.4600000381469727,3.0339999198913574 -2.190999984741211,3.760999917984009 C-2.190999984741211,3.760999917984009 -1.5140000581741333,5.5920000076293945 -1.5140000581741333,5.5920000076293945 C-0.9940000176429749,6.997000217437744 0.9929999709129333,6.997000217437744 1.5130000114440918,5.5920000076293945 C1.5130000114440918,5.5920000076293945 2.190000057220459,3.760999917984009 2.190000057220459,3.760999917984009 C2.4600000381469727,3.0339999198913574 3.0329999923706055,2.4600000381469727 3.760999917984009,2.190999984741211 C3.760999917984009,2.190999984741211 5.5920000076293945,1.5130000114440918 5.5920000076293945,1.5130000114440918 C6.997000217437744,0.9929999709129333 6.997000217437744,-0.9940000176429749 5.5920000076293945,-1.5130000114440918 C5.5920000076293945,-1.5130000114440918 3.760999917984009,-2.190999984741211 3.760999917984009,-2.190999984741211 C3.0329999923706055,-2.4600000381469727 2.4600000381469727,-3.0339999198913574 2.190000057220459,-3.760999917984009 C2.190000057220459,-3.760999917984009 1.5130000114440918,-5.5920000076293945 1.5130000114440918,-5.5920000076293945z"></path></g></g></g></g></svg>

<svg xmlns="http://www.w3.org/2000/svg" width="96" height="96" style="width:100%;height:100%;transform:translate3d(0,0,0);content-visibility:visible" viewBox="0 0 96 96"><defs><clipPath id="a"><path d="M0 0h96v96H0z"/></clipPath><clipPath id="b"><path d="M0 0h96v96H0z"/></clipPath></defs><g clip-path="url(#a)"><g clip-path="url(#b)" style="display:block" transform="matrix(2.7 0 0 2.7 -79.6 -81.351)"><path fill="oklab(0.700621 0.0017004 -0.0100388)" d="M-6.555 1.641a2.626 2.626 0 0 0 1.856 3.216l6.34 1.698a2.626 2.626 0 0 0 3.216-1.856l1.698-6.34a2.627 2.627 0 0 0-1.856-3.216l-6.34-1.699a2.626 2.626 0 0 0-3.216 1.857z" style="display:block" transform="translate(39.202 39.828)"/><path fill="oklab(0.700621 0.0017004 -0.0100388)" d="M-6.478 2.404c-1.074 1.968.351 4.368 2.593 4.368h7.771c2.242 0 3.666-2.4 2.593-4.368L2.593-4.719c-1.119-2.053-4.066-2.053-5.186 0z" style="display:block" transform="translate(55.245 39.441)"/><path fill="oklab(0.700621 0.0017004 -0.0100388)" d="M-.941-6.268a1.314 1.314 0 0 1 1.882 0l1.116 1.135c.213.216.491.353.789.388l1.566.183c.729.085 1.254.756 1.173 1.501l-.174 1.598c-.033.305.036.612.195.872L6.442.772c.39.635.203 1.472-.419 1.872l-1.332.858c-.254.163-.447.41-.547.699l-.523 1.517a1.326 1.326 0 0 1-1.695.833L.438 6.022c-.284-.1-.593-.1-.876 0l-1.489.529a1.327 1.327 0 0 1-1.695-.833l-.523-1.517a1.35 1.35 0 0 0-.546-.699l-1.333-.858A1.377 1.377 0 0 1-6.443.772l.837-1.363a1.38 1.38 0 0 0 .194-.872l-.173-1.598c-.081-.745.443-1.416 1.173-1.501l1.565-.183c.299-.035.577-.172.79-.388z" style="display:block" transform="translate(39.202 56.092)"/><path fill="oklab(0.700621 0.0017004 -0.0100388)" d="M1.513-5.592c-.52-1.405-2.507-1.405-3.027 0l-.677 1.831a2.66 2.66 0 0 1-1.571 1.57l-1.83.678c-1.405.519-1.405 2.506 0 3.026l1.83.678a2.66 2.66 0 0 1 1.571 1.57l.677 1.831c.52 1.405 2.507 1.405 3.027 0l.677-1.831a2.66 2.66 0 0 1 1.571-1.57l1.831-.678c1.405-.52 1.405-2.507 0-3.026l-1.831-.678a2.66 2.66 0 0 1-1.571-1.57z" style="display:block" transform="matrix(-1 0 0 -1 55.447 56.073)"/></g></g></svg>
